X: 1
T:Golden Eagle Hornpipe
M:4/4
L:1/8
C:Trad.
S:Arr. Mark O'Connor
K:G
BA|GB,DG BDGB|dGBd gbag|(4fgfe d_d cAFD|GBAG FDBA|!
GB,DG BDGB|dGBd gbag|(4fgfe d_d cAFD|GBAF G2:|!
b^a|bf^df bagf|e^def ^gefg|a^c (3ef^g aba=g|fdec d2 (3gab|!
c'2 ge d_efa|(3gagf ag bgag|fcBc ecAF|G2 (4GAGF G2:|!
